X: 39726
T: TG Fifteens
R: jig
M: 6/8
K: Dmajor
|:DED d2f|edc dAF|B2d AGF|E2E GFE|
DED d2f|edc dfg|a2f gec|ABc d3:|
|:ABA efg|fdc dfg|a2f gfe|f2d edc|
ABA efg|fdc dfg|a2f gec|ABc d3:|

